svg/nucypher_logo.svg

<?xml version="1.0" encoding="UTF-8" standalone="no"?>
<svg
   xmlns:dc="http://purl.org/dc/elements/1.1/"
   xmlns:cc="http://creativecommons.org/ns#"
   xmlns:rdf="http://www.w3.org/1999/02/22-rdf-syntax-ns#"
   xmlns:svg="http://www.w3.org/2000/svg"
   xmlns="http://www.w3.org/2000/svg"
   xmlns:xlink="http://www.w3.org/1999/xlink"
   xmlns:sodipodi="http://sodipodi.sourceforge.net/DTD/sodipodi-0.dtd"
   xmlns:inkscape="http://www.inkscape.org/namespaces/inkscape"
   width="868.08447"
   height="711.8811"
   viewBox="0 0 868.08447 711.8811"
   version="1.1"
   id="svg2"
   inkscape:version="0.91 r13725"
   sodipodi:docname="nucypher_logo.svg">
  <metadata
     id="metadata65">
    <rdf:RDF>
      <cc:Work
         rdf:about="">
        <dc:format>image/svg+xml</dc:format>
        <dc:type
           rdf:resource="http://purl.org/dc/dcmitype/StillImage" />
        <dc:title>Desktop 4</dc:title>
      </cc:Work>
    </rdf:RDF>
  </metadata>
  <sodipodi:namedview
     pagecolor="#ffffff"
     bordercolor="#666666"
     borderopacity="1"
     objecttolerance="10"
     gridtolerance="10"
     guidetolerance="10"
     inkscape:pageopacity="0"
     inkscape:pageshadow="2"
     inkscape:window-width="1440"
     inkscape:window-height="855"
     id="namedview63"
     showgrid="false"
     fit-margin-top="0"
     fit-margin-left="0"
     fit-margin-right="0"
     fit-margin-bottom="0"
     inkscape:zoom="0.23046875"
     inkscape:cx="434.04224"
     inkscape:cy="355.94067"
     inkscape:window-x="0"
     inkscape:window-y="1"
     inkscape:window-maximized="1"
     inkscape:current-layer="svg2" />
  <title
     id="title4">Desktop 4</title>
  <desc
     id="desc6">Created using Figma</desc>
  <g
     id="Canvas"
     transform="translate(-3845.9578,3137.9404)"
     clip-path="url(#clipPath4195)">
    <clipPath
       id="clip-0"
       style="clip-rule:evenodd">
      <path
         d="m 3768,-3294 1024,0 0,1024 -1024,0 0,-1024 z"
         id="path10"
         inkscape:connector-curvature="0"
         style="fill:#ffffff" />
    </clipPath>
    <g
       id="Desktop 4"
       clip-path="url(#clip-0)">
      <path
         d="m 3768,-3294 1024,0 0,1024 -1024,0 0,-1024 z"
         id="path13"
         inkscape:connector-curvature="0"
         style="fill:#ffffff" />
      <g
         id="wordmark">
        <g
           id="Vector">
          <use
             xlink:href="#path0_fill"
             transform="translate(3901,-2624.64)"
             id="use17"
             style="fill:#1e65f3"
             x="0"
             y="0"
             width="100%"
             height="100%" />
        </g>
        <g
           id="g19">
          <use
             xlink:href="#path1_fill"
             transform="translate(4016.34,-2590.23)"
             id="use21"
             style="fill:#1e65f3"
             x="0"
             y="0"
             width="100%"
             height="100%" />
        </g>
        <g
           id="g23">
          <use
             xlink:href="#path2_fill"
             transform="translate(4107.25,-2627)"
             id="use25"
             style="fill:#121112"
             x="0"
             y="0"
             width="100%"
             height="100%" />
        </g>
        <g
           id="g27">
          <use
             xlink:href="#path3_fill"
             transform="translate(4224.29,-2590.25)"
             id="use29"
             style="fill:#121112"
             x="0"
             y="0"
             width="100%"
             height="100%" />
        </g>
        <g
           id="g31">
          <use
             xlink:href="#path4_fill"
             transform="translate(4322.33,-2592.59)"
             id="use33"
             style="fill:#121112"
             x="0"
             y="0"
             width="100%"
             height="100%" />
        </g>
        <g
           id="g35">
          <use
             xlink:href="#path5_fill"
             transform="translate(4423.35,-2624.68)"
             id="use37"
             style="fill:#121112"
             x="0"
             y="0"
             width="100%"
             height="100%" />
        </g>
        <g
           id="g39">
          <use
             xlink:href="#path6_fill"
             transform="translate(4512.54,-2592.61)"
             id="use41"
             style="fill:#121112"
             x="0"
             y="0"
             width="100%"
             height="100%" />
        </g>
        <g
           id="g43">
          <use
             xlink:href="#path7_fill"
             transform="translate(4610.36,-2592.59)"
             id="use45"
             style="fill:#121112"
             x="0"
             y="0"
             width="100%"
             height="100%" />
        </g>
      </g>
      <g
         id="coinmark">
        <g
           id="g48">
          <use
             xlink:href="#path8_fill"
             transform="translate(3964,-3136)"
             id="use50"
             style="fill:#1e65f3"
             x="0"
             y="0"
             width="100%"
             height="100%" />
        </g>
      </g>
    </g>
  </g>
  <defs
     id="defs52">
    <path
       id="path0_fill"
       d="M -1.92724e-6,1.54153e-5 18.5035,1.54153e-5 71.4878,82.3147 c 1.8468,2.8867 3.5334,5.8729 5.0521,8.9449 l 0,-91.2595845847 17.5562,0 0,118.0729845847 -18.5666,0 -52.8159,-82.3142 c -1.8469,-2.8868 -3.5335,-5.8729 -5.0522,-8.945 l 0,91.2592 -17.66140192724,0 0,-118.0729845847 z"
       inkscape:connector-curvature="0" />
    <path
       id="path1_fill"
       d="m 0,-3.85381e-6 17.2194,0 0,50.26010385381 c 0,12.986 6.7362,19.9105 18.5456,19.9105 12.3145,0 21.9347,-10.5235 21.9347,-24.9617 l 0,-45.20890385381 17.2193,0 0,83.66170385381 -17.2193,0 0,-13.5122 C 55.1099,75.0671 51.192,79.1593 46.3915,81.961 41.591,84.7627 36.1005,86.1613 30.5444,85.9979 14.167,85.9979 0,75.8743 0,53.7961 L 0,-3.85381e-6 Z"
       inkscape:connector-curvature="0" />
    <path
       id="path2_fill"
       d="M 110.158,91.7647 C 97.8431,111.822 84.0129,122.788 58.5417,122.788 24.966,122.788 5.1393e-6,97.5316 5.1393e-6,61.394 5.1393e-6,25.2563 26.65,-6.42302e-6 59.3837,-6.42302e-6 83.5077,-6.42302e-6 101.716,12.6282 109.905,30.5181 L 95.4012,41.0416 C 86.981,24.6881 75.319,16.585 59.1311,16.585 c -22.2715,0 -40.5013,18.9423 -40.5013,44.8721 0,25.6352 17.0509,44.8719 40.3329,44.8719 15.8511,0 28.3341,-7.5977 37.2806,-24.4563 l 13.9147,9.892 z"
       inkscape:connector-curvature="0" />
    <path
       id="path3_fill"
       d="m 12.483,101.741 c 2.4002,1.048 4.981,1.62 7.5993,1.684 4.3785,0 7.073,-1.347 10.1253,-8.9452 L 34.0809,84.1879 -1.41331e-5,7.70763e-6 19.7454,7.70763e-6 43.3642,60.3838 66.8145,7.70763e-6 l 18.9456,0 L 45.2798,100.541 c -5.3889,13.66 -13.325,18.711 -23.4503,18.711 -4.119,-10e-4 -8.2141,-0.626 -12.14623,-1.852 L 12.483,101.741 Z"
       inkscape:connector-curvature="0" />
    <path
       id="path4_fill"
       d="m -3.08358e-5,2.35726 17.1983308358,0 0,12.81754 C 22.4399,6.90339 33.9125,6.42302e-6 46.9007,6.42302e-6 67.804,6.42302e-6 85.5285,16.5219 85.5285,44.1986 c 0,27.1506 -17.7245,44.1986 -40.1434,44.1986 -11.9989,0 -22.7978,-5.388 -28.1868,-13.8278 l 0,45.8826 -17.1983308358,0 0,-118.09474 z M 16.0826,44.1986 c 0,16.8376 11.641,28.3293 25.9765,28.3293 14.3354,0 25.9764,-11.4707 25.9764,-28.3293 0,-16.8586 -11.641,-28.3502 -25.9764,-28.3502 -14.3355,0 -25.9765,11.4706 -25.9765,28.3502 z"
       inkscape:connector-curvature="0" />
    <path
       id="path5_fill"
       d="m 75.9084,118.116 -17.1983,0 0,-51.2709 c 0,-11.9757 -7.094,-18.9422 -18.5666,-18.9422 -12.3146,0 -22.9452,10.1236 -22.9452,25.9719 l 0,44.1982 -17.1982871517,0 0,-118.07299357698 17.1982871517,0 0,48.40799357698 c 3.0669,-4.952 7.3366,-9.0481 12.412,-11.9074 5.0753,-2.8592 10.7915,-4.3887 16.6168,-4.4461 16.3563,0 29.6813,10.292 29.6813,29.4658 l 0,56.5957 z"
       inkscape:connector-curvature="0" />
    <path
       id="path6_fill"
       d="m 17.1351,47.9239 c 0.6737,14.8381 10.6306,25.4669 25.4713,25.4669 13.6618,0 20.0823,-7.4296 24.966,-17.3848 l 13.325,7.9347 C 73.1508,79.9574 60.9835,88.3973 42.1012,88.3973 19.156,88.3973 2.56965e-6,70.36 2.56965e-6,44.1986 2.56965e-6,18.0372 19.2402,-1.41307e-5 43.0274,-1.41307e-5 67.3198,-1.41307e-5 83.5287,17.3638 83.5287,41.8203 l 0,6.0826 -66.3936,0.021 z m 0,-13.1543 49.932,0 C 65.7199,21.1101 54.2473,13.8489 42.6064,13.8489 c -12.5462,0 -22.2716,8.7766 -25.4713,20.9207 z"
       inkscape:connector-curvature="0" />
    <path
       id="path7_fill"
       d="m 44.6904,17.1954 c -2.1233,-0.6765 -4.3393,-1.0174 -6.5678,-1.0103 -12.1462,0 -20.9243,10.9655 -20.9243,25.8036 l 0,44.0303 -17.1982948607,0 0,-83.66174 17.1982948607,0 0,14.16464 C 21.7452,6.73501 29.8287,6.42302e-6 41.3223,6.42302e-6 43.4534,0.0279467 45.5735,0.310566 47.6375,0.841872 L 44.6904,17.1954 Z"
       inkscape:connector-curvature="0" />
    <path
       id="path8_fill"
       d="M 442.752,0.195422 394.487,23.0953 c -0.245,0.1158 -0.465,0.2788 -0.648,0.4798 -0.182,0.2011 -0.323,0.4361 -0.415,0.6917 -0.091,0.2555 -0.131,0.5267 -0.118,0.7978 0.014,0.2711 0.081,0.5368 0.197,0.7821 l 73.405,154.7373 c 27.275,57.564 19.97,101.23 -21.5,120.963 -33.56,15.927 -62.53,4.815 -85.133,-33.988 L 273.363,84.3358 C 238.119,10.0622 190.115,-9.62392 133.17,17.3911 96.1237,34.9663 74.6358,66.3811 75.0627,106.251 c 0.0083,0.471 -0.1449,0.931 -0.4342,1.303 -0.2892,0.372 -0.697,0.634 -1.1556,0.742 -0.4586,0.108 -0.9403,0.056 -1.3652,-0.148 -0.4248,-0.203 -0.7672,-0.546 -0.9702,-0.972 L 52.1637,67.1993 c -0.1156,-0.2455 -0.2787,-0.4657 -0.48,-0.6478 -0.2013,-0.1821 -0.4367,-0.3224 -0.6926,-0.4128 -0.2559,-0.0905 -0.5272,-0.1292 -0.7981,-0.1141 -0.271,0.0151 -0.5363,0.0839 -0.7805,0.2023 L 1.15964,89.0557 c -0.483848,0.2336 -0.856754,0.6476 -1.038583,1.1532 -0.1818296,0.5056 -0.1580702,1.0624 0.066172,1.5507 L 133.478,372.82 c 0.237,0.494 0.658,0.874 1.173,1.059 0.516,0.184 1.083,0.157 1.579,-0.074 l 48.264,-22.9 c 0.246,-0.116 0.466,-0.279 0.649,-0.48 0.182,-0.201 0.323,-0.436 0.414,-0.692 0.092,-0.255 0.132,-0.526 0.118,-0.798 -0.013,-0.271 -0.08,-0.536 -0.196,-0.782 L 114.125,197.744 C 85.0596,136.456 90.5739,92.139 135.139,70.9943 c 34.2,-16.2233 60.787,-5.3129 84.659,36.2537 0.032,0.048 0.06,0.1 0.083,0.154 l 86.058,181.444 c 33.204,69.969 84.777,93.995 139.244,68.154 42.098,-19.97 59.554,-50.033 58.534,-89.572 -0.011,-0.472 0.14,-0.933 0.429,-1.308 0.288,-0.374 0.696,-0.637 1.155,-0.747 0.46,-0.11 0.943,-0.059 1.369,0.145 0.426,0.204 0.769,0.547 0.973,0.974 l 19.163,40.404 c 0.116,0.245 0.279,0.465 0.48,0.648 0.201,0.182 0.436,0.323 0.692,0.415 0.255,0.091 0.526,0.131 0.797,0.118 0.271,-0.014 0.537,-0.081 0.782,-0.197 l 48.265,-22.9 c 0.246,-0.116 0.466,-0.279 0.648,-0.48 0.182,-0.201 0.322,-0.437 0.413,-0.693 0.09,-0.256 0.129,-0.527 0.114,-0.798 -0.015,-0.271 -0.084,-0.536 -0.203,-0.78 L 445.503,1.17973 c -0.236,-0.49368 -0.658,-0.8741 -1.173,-1.058445 -0.515,-0.1843464 -1.082,-0.1576979 -1.578,0.074137 z"
       inkscape:connector-curvature="0" />
    <clipPath
       clipPathUnits="userSpaceOnUse"
       id="clipPath4195">
      <rect
         style="fill:none;fill-opacity:1;stroke:#350000;stroke-width:1.51212192;stroke-linejoin:miter;stroke-miterlimit:4;stroke-dasharray:none;stroke-opacity:1"
         id="rect4197"
         width="868.08447"
         height="711.8811"
         x="3845.9578"
         y="-3137.9404"
         ry="36.954494" />
    </clipPath>
  </defs>
</svg>

<?xml version="1.0" encoding="UTF-8" standalone="no"?>
<svg
   xmlns:dc="http://purl.org/dc/elements/1.1/"
   xmlns:cc="http://creativecommons.org/ns#"
   xmlns:rdf="http://www.w3.org/1999/02/22-rdf-syntax-ns#"
   xmlns:svg="http://www.w3.org/2000/svg"
   xmlns="http://www.w3.org/2000/svg"
   xmlns:xlink="http://www.w3.org/1999/xlink"
   xmlns:sodipodi="http://sodipodi.sourceforge.net/DTD/sodipodi-0.dtd"
   xmlns:inkscape="http://www.inkscape.org/namespaces/inkscape"
   width="882.0506"
   height="809.58368"
   viewBox="0 0 882.0506 809.58368"
   version="1.1"
   id="svg2"
   inkscape:version="0.92.3 (2405546, 2018-03-11)"
   sodipodi:docname="nucypher_logo.svg">
  <metadata
     id="metadata65">
    <rdf:RDF>
      <cc:Work
         rdf:about="">
        <dc:format>image/svg+xml</dc:format>
        <dc:type
           rdf:resource="http://purl.org/dc/dcmitype/StillImage" />
        <dc:title>Desktop 4</dc:title>
      </cc:Work>
    </rdf:RDF>
  </metadata>
  <sodipodi:namedview
     pagecolor="#ffffff"
     bordercolor="#666666"
     borderopacity="1"
     objecttolerance="10"
     gridtolerance="10"
     guidetolerance="10"
     inkscape:pageopacity="0"
     inkscape:pageshadow="2"
     inkscape:window-width="3440"
     inkscape:window-height="1351"
     id="namedview63"
     showgrid="false"
     fit-margin-top="0"
     fit-margin-left="0"
     fit-margin-right="0"
     fit-margin-bottom="0"
     inkscape:zoom="1.3037281"
     inkscape:cx="220.79887"
     inkscape:cy="529.03955"
     inkscape:window-x="0"
     inkscape:window-y="40"
     inkscape:window-maximized="1"
     inkscape:current-layer="svg2" />
  <title
     id="title4">Desktop 4</title>
  <desc
     id="desc6">Created using Figma</desc>
  <g
     id="Canvas"
     transform="translate(-3840.2226,3235.643)"
     clip-path="url(#clipPath4195)">
    <clipPath
       id="clip-0"
       style="clip-rule:evenodd">
      <path
         d="m 3768,-3294 h 1024 v 1024 H 3768 Z"
         id="path10"
         inkscape:connector-curvature="0"
         style="fill:#ffffff" />
    </clipPath>
    <g
       id="Desktop 4"
       clip-path="url(#clip-0)">
      <path
         d="m 3768,-3294 h 1024 v 1024 H 3768 Z"
         id="path13"
         inkscape:connector-curvature="0"
         style="fill:#ffffff" />
      <g
         id="wordmark">
        <g
           id="Vector">
          <use
             xlink:href="#path0_fill"
             transform="translate(3901,-2624.64)"
             id="use17"
             style="fill:#1e65f3"
             x="0"
             y="0"
             width="100%"
             height="100%" />
        </g>
        <g
           id="g19">
          <use
             xlink:href="#path1_fill"
             transform="translate(4016.34,-2590.23)"
             id="use21"
             style="fill:#1e65f3"
             x="0"
             y="0"
             width="100%"
             height="100%" />
        </g>
        <g
           id="g23">
          <use
             xlink:href="#path2_fill"
             transform="translate(4107.25,-2627)"
             id="use25"
             style="fill:#121112"
             x="0"
             y="0"
             width="100%"
             height="100%" />
        </g>
        <g
           id="g27">
          <use
             xlink:href="#path3_fill"
             transform="translate(4224.29,-2590.25)"
             id="use29"
             style="fill:#121112"
             x="0"
             y="0"
             width="100%"
             height="100%" />
        </g>
        <g
           id="g31">
          <use
             xlink:href="#path4_fill"
             transform="translate(4322.33,-2592.59)"
             id="use33"
             style="fill:#121112"
             x="0"
             y="0"
             width="100%"
             height="100%" />
        </g>
        <g
           id="g35">
          <use
             xlink:href="#path5_fill"
             transform="translate(4423.35,-2624.68)"
             id="use37"
             style="fill:#121112"
             x="0"
             y="0"
             width="100%"
             height="100%" />
        </g>
        <g
           id="g39">
          <use
             xlink:href="#path6_fill"
             transform="translate(4512.54,-2592.61)"
             id="use41"
             style="fill:#121112"
             x="0"
             y="0"
             width="100%"
             height="100%" />
        </g>
        <g
           id="g43">
          <use
             xlink:href="#path7_fill"
             transform="translate(4610.36,-2592.59)"
             id="use45"
             style="fill:#121112"
             x="0"
             y="0"
             width="100%"
             height="100%" />
        </g>
      </g>
      <g
         id="coinmark">
        <g
           id="g48">
          <use
             xlink:href="#path8_fill"
             transform="translate(3964,-3136)"
             id="use50"
             style="fill:#1e65f3"
             x="0"
             y="0"
             width="100%"
             height="100%" />
        </g>
      </g>
    </g>
  </g>
  <defs
     id="defs52">
    <path
       id="path0_fill"
       d="M -1.92724e-6,1.54153e-5 H 18.5035 L 71.4878,82.3147 c 1.8468,2.8867 3.5334,5.8729 5.0521,8.9449 V 1.54153e-5 H 94.0961 V 118.073 H 75.5295 L 22.7136,35.7588 C 20.8667,32.872 19.1801,29.8859 17.6614,26.8138 V 118.073 H -1.92724e-6 Z"
       inkscape:connector-curvature="0" />
    <path
       id="path1_fill"
       d="M 0,-3.85381e-6 H 17.2194 V 50.2601 c 0,12.986 6.7362,19.9105 18.5456,19.9105 12.3145,0 21.9347,-10.5235 21.9347,-24.9617 V -3.85381e-6 H 74.919 V 83.6617 H 57.6997 V 70.1495 C 55.1099,75.0671 51.192,79.1593 46.3915,81.961 41.591,84.7627 36.1005,86.1613 30.5444,85.9979 14.167,85.9979 0,75.8743 0,53.7961 Z"
       inkscape:connector-curvature="0" />
    <path
       id="path2_fill"
       d="M 110.158,91.7647 C 97.8431,111.822 84.0129,122.788 58.5417,122.788 24.966,122.788 5.1393e-6,97.5316 5.1393e-6,61.394 5.1393e-6,25.2563 26.65,-6.42302e-6 59.3837,-6.42302e-6 83.5077,-6.42302e-6 101.716,12.6282 109.905,30.5181 L 95.4012,41.0416 C 86.981,24.6881 75.319,16.585 59.1311,16.585 c -22.2715,0 -40.5013,18.9423 -40.5013,44.8721 0,25.6352 17.0509,44.8719 40.3329,44.8719 15.8511,0 28.3341,-7.5977 37.2806,-24.4563 z"
       inkscape:connector-curvature="0" />
    <path
       id="path3_fill"
       d="m 12.483,101.741 c 2.4002,1.048 4.981,1.62 7.5993,1.684 4.3785,0 7.073,-1.347 10.1253,-8.9452 L 34.0809,84.1879 -1.41331e-5,7.70763e-6 H 19.7454 L 43.3642,60.3838 66.8145,7.70763e-6 H 85.7601 L 45.2798,100.541 c -5.3889,13.66 -13.325,18.711 -23.4503,18.711 -4.119,-10e-4 -8.2141,-0.626 -12.14623,-1.852 z"
       inkscape:connector-curvature="0" />
    <path
       id="path4_fill"
       d="M -3.08358e-5,2.35726 H 17.1983 V 15.1748 C 22.4399,6.90339 33.9125,6.42302e-6 46.9007,6.42302e-6 67.804,6.42302e-6 85.5285,16.5219 85.5285,44.1986 c 0,27.1506 -17.7245,44.1986 -40.1434,44.1986 -11.9989,0 -22.7978,-5.388 -28.1868,-13.8278 V 120.452 H -3.08358e-5 Z M 16.0826,44.1986 c 0,16.8376 11.641,28.3293 25.9765,28.3293 14.3354,0 25.9764,-11.4707 25.9764,-28.3293 0,-16.8586 -11.641,-28.3502 -25.9764,-28.3502 -14.3355,0 -25.9765,11.4706 -25.9765,28.3502 z"
       inkscape:connector-curvature="0" />
    <path
       id="path5_fill"
       d="M 75.9084,118.116 H 58.7101 V 66.8451 c 0,-11.9757 -7.094,-18.9422 -18.5666,-18.9422 -12.3146,0 -22.9452,10.1236 -22.9452,25.9719 V 118.073 H 1.28483e-5 V 6.42302e-6 H 17.1983 V 48.408 c 3.0669,-4.952 7.3366,-9.0481 12.412,-11.9074 5.0753,-2.8592 10.7915,-4.3887 16.6168,-4.4461 16.3563,0 29.6813,10.292 29.6813,29.4658 z"
       inkscape:connector-curvature="0" />
    <path
       id="path6_fill"
       d="m 17.1351,47.9239 c 0.6737,14.8381 10.6306,25.4669 25.4713,25.4669 13.6618,0 20.0823,-7.4296 24.966,-17.3848 l 13.325,7.9347 C 73.1508,79.9574 60.9835,88.3973 42.1012,88.3973 19.156,88.3973 2.56965e-6,70.36 2.56965e-6,44.1986 2.56965e-6,18.0372 19.2402,-1.41307e-5 43.0274,-1.41307e-5 67.3198,-1.41307e-5 83.5287,17.3638 83.5287,41.8203 v 6.0826 z m 0,-13.1543 h 49.932 C 65.7199,21.1101 54.2473,13.8489 42.6064,13.8489 c -12.5462,0 -22.2716,8.7766 -25.4713,20.9207 z"
       inkscape:connector-curvature="0" />
    <path
       id="path7_fill"
       d="m 44.6904,17.1954 c -2.1233,-0.6765 -4.3393,-1.0174 -6.5678,-1.0103 -12.1462,0 -20.9243,10.9655 -20.9243,25.8036 V 86.019 H 5.1393e-6 V 2.35726 H 17.1983 V 16.5219 C 21.7452,6.73501 29.8287,6.42302e-6 41.3223,6.42302e-6 43.4534,0.0279467 45.5735,0.310566 47.6375,0.841872 Z"
       inkscape:connector-curvature="0" />
    <path
       id="path8_fill"
       d="M 442.752,0.195422 394.487,23.0953 c -0.245,0.1158 -0.465,0.2788 -0.648,0.4798 -0.182,0.2011 -0.323,0.4361 -0.415,0.6917 -0.091,0.2555 -0.131,0.5267 -0.118,0.7978 0.014,0.2711 0.081,0.5368 0.197,0.7821 l 73.405,154.7373 c 27.275,57.564 19.97,101.23 -21.5,120.963 -33.56,15.927 -62.53,4.815 -85.133,-33.988 L 273.363,84.3358 C 238.119,10.0622 190.115,-9.62392 133.17,17.3911 96.1237,34.9663 74.6358,66.3811 75.0627,106.251 c 0.0083,0.471 -0.1449,0.931 -0.4342,1.303 -0.2892,0.372 -0.697,0.634 -1.1556,0.742 -0.4586,0.108 -0.9403,0.056 -1.3652,-0.148 -0.4248,-0.203 -0.7672,-0.546 -0.9702,-0.972 L 52.1637,67.1993 c -0.1156,-0.2455 -0.2787,-0.4657 -0.48,-0.6478 -0.2013,-0.1821 -0.4367,-0.3224 -0.6926,-0.4128 -0.2559,-0.0905 -0.5272,-0.1292 -0.7981,-0.1141 -0.271,0.0151 -0.5363,0.0839 -0.7805,0.2023 L 1.15964,89.0557 c -0.483848,0.2336 -0.856754,0.6476 -1.038583,1.1532 -0.1818296,0.5056 -0.1580702,1.0624 0.066172,1.5507 L 133.478,372.82 c 0.237,0.494 0.658,0.874 1.173,1.059 0.516,0.184 1.083,0.157 1.579,-0.074 l 48.264,-22.9 c 0.246,-0.116 0.466,-0.279 0.649,-0.48 0.182,-0.201 0.323,-0.436 0.414,-0.692 0.092,-0.255 0.132,-0.526 0.118,-0.798 -0.013,-0.271 -0.08,-0.536 -0.196,-0.782 L 114.125,197.744 C 85.0596,136.456 90.5739,92.139 135.139,70.9943 c 34.2,-16.2233 60.787,-5.3129 84.659,36.2537 0.032,0.048 0.06,0.1 0.083,0.154 l 86.058,181.444 c 33.204,69.969 84.777,93.995 139.244,68.154 42.098,-19.97 59.554,-50.033 58.534,-89.572 -0.011,-0.472 0.14,-0.933 0.429,-1.308 0.288,-0.374 0.696,-0.637 1.155,-0.747 0.46,-0.11 0.943,-0.059 1.369,0.145 0.426,0.204 0.769,0.547 0.973,0.974 l 19.163,40.404 c 0.116,0.245 0.279,0.465 0.48,0.648 0.201,0.182 0.436,0.323 0.692,0.415 0.255,0.091 0.526,0.131 0.797,0.118 0.271,-0.014 0.537,-0.081 0.782,-0.197 l 48.265,-22.9 c 0.246,-0.116 0.466,-0.279 0.648,-0.48 0.182,-0.201 0.322,-0.437 0.413,-0.693 0.09,-0.256 0.129,-0.527 0.114,-0.798 -0.015,-0.271 -0.084,-0.536 -0.203,-0.78 L 445.503,1.17973 c -0.236,-0.49368 -0.658,-0.8741 -1.173,-1.058445 -0.515,-0.1843464 -1.082,-0.1576979 -1.578,0.074137 z"
       inkscape:connector-curvature="0" />
    <clipPath
       clipPathUnits="userSpaceOnUse"
       id="clipPath4195">
      <rect
         style="fill:none;fill-opacity:1;stroke:#350000;stroke-width:1.51212192;stroke-linejoin:miter;stroke-miterlimit:4;stroke-dasharray:none;stroke-opacity:1"
         id="rect4197"
         width="868.08447"
         height="711.8811"
         x="3845.9578"
         y="-3137.9404"
         ry="36.954494" />
    </clipPath>
  </defs>
</svg>
